src/svg/resizeleft.svg

<svg height="35" viewBox="0 0 35 35" width="35" xmlns="http://www.w3.org/2000/svg"><g fill="none" fill-rule="evenodd"><path d="m18.02 9v6.006h-1.02v-3.866l-6 5.872 6 5.89v-3.907h1.02v6.005h3.98v-16z" fill="#fff"/><path d="m19 10v6h-3.02v-2.24l-3.32 3.251 3.32 3.223v-2.254h3.02v6h1.98v-13.98z" fill="#000"/></g></svg>

<?xml version="1.0" encoding="UTF-8" standalone="no"?>
<svg width="35px" height="35px" viewBox="0 0 35 35" version="1.1" xmlns="http://www.w3.org/2000/svg" xmlns:xlink="http://www.w3.org/1999/xlink">
    <defs></defs>
    <g id="Page-1" stroke="none" stroke-width="1" fill="none" fill-rule="evenodd">
        <g id="resizeleft">
            <g id="bg-copy" fill="#FFFFFF" opacity="0.00999999978">
                <rect id="bg" x="0" y="0" width="35" height="35"></rect>
            </g>
            <path d="M18.02,9 L18.02,15.006 L17,15.006 L17,11.14 L11,17.012 L17,22.902 L17,18.995 L18.02,18.995 L18.02,25 L22,25 L22,9 L18.02,9 Z" id="resize-border" fill="#FFFFFF"></path>
            <path d="M19,10 L19,16 L15.98,16 L15.98,13.76 L12.66,17.011 L15.98,20.234 L15.98,17.98 L19,17.98 L19,23.98 L20.98,23.98 L20.98,10 L19,10 Z" id="resize" fill="#000000"></path>
        </g>
    </g>
</svg>
